X:1
T:Guts thun, Bösz lassen
T:André Vierendeels
T:Melody by Georg Vogler (1625) (Tenor 1 voice)
T:Source : Catechismus---Würzburg---J.Volmari---1652. Editor : André Vierendeels (03/09/17) Notes : Original clef : C3, other voices supplied editorially Original note values have been halved Text Middle German
T:Guts thun, Bösz lassen
T:©
T:©
C:André Vierendeels
Z:©
%%score [ 1 2 3 ]
L:1/8
Q:1/4=120
M:2/2
K:C
V:1 treble-8 nm="Tenor 1" snm="T 1"
V:2 treble-8 nm="Tenor 2" snm="T 2"
V:3 bass nm="Bass" snm="B"
V:1
"^1)" c4 d2 e2 | d2 c2 B2 A2 | G4 z4 | c4 d2 e2 | f2 d2 f4 | d4 c4 | z4 e4 | e2 g2 f2 e2 | %8
w: Guts thun, Bösz|las- sen, seyn zwo|Haab,|so her- flies-|sen vom Him-|mel rab.|Als|lang die Nees im|
w: Frücht o- der|Few'r: ein's drausz er-|wehlt,|zu gu- ten|Wer- cken dich|ge- sell,|Wer|durch Him- * mels|
 c2 d2 e4 | z4 g4 | g2 a2 g2 g2 | f4 e4 | d4 z4 | e4 g4 | f2 e4 c2 | d2 e2 c4 | z4 e4 | e2 f4 e2 | %18
w: Wein- stock bleibt,|so|lang der Stock im|Safft sie|treibt,|dürz wird|sie a- ber|und ver- brennt,|so|balt sie sich|
w: Pfort will ein,|der|wisz es musz ge-|strit- ten|seyn,|der Höl-|lisch Drach mit|sei- nem Heer,|ver-|legt den Pasz,|
 d2 c4 B2 | c8 |] %20
w: vom Wein- stock|trennt.|
w: stellt sich zur|wehr.|
V:2
"^2)""^1)" E4 G2 c2 | F2 G2 G2 F2 | G4 z4 | G4 F2 G2 | A2 B2 c4 | B4 c4 | z4 c4 | A2 B2 d2 G2 | %8
w: Guts thun, Bösz|las- sen, seyn zwo|Haab,|so her- flies-|sen vom Him-|mel rab.|Als|lang die Nees im|
w: Die Thür ist|eng, hat Gott ge-|sagt,|dem wird sie|weit, ders red-|lich wagt:|die|Strasz gen Berg ist|
 G2 F2 E4 | z4 B4 | d2 c2 e2 B2 | c4 G4 | B4 z4 | c4 d4 | A2 c2 G4 | F2 G2 A4 | z4 B4 | c2 A4 c2 | %18
w: Wein- stock bleibt,|so|lang der Stock im|Safft sie|treibt,|dürz wird|sie a- ber|und ver- brennt,|so|balt sie sich|
w: rauch und schmal,|wer|ab- werdts will, kompt|ring gen|Thal,|brauch Gwalt,|Gott sey dein|Zu- ber- sicht,|der|ists der dei-|
 A2 G2 E2 D2 | E8 |] %20
w: vom Wein- * stock|trennt.|
w: nen Feind ab- *|bricht.|
V:3
"^3)""^1)""^4)" C,4 B,,2 C,2 | D,2 E,2 G,2 D,2 | G,4 z4 | E,4 F,2 C,2 | D,2 G,2 F,4 | G,4 C,4 | %6
w: Guts thun, Bôsz|las- sen, seyn zwo|Haab,|so her- flies-|sen vom Him-|mel rab.|
w: Wer sei- nem|Kampff an- greifft mit|Rath,|und Gott dar-|bey vor Au-|gen hat,|
 z4 A,,4 | E,2 B,,2 D,2 C,2 | E,2 D,2 C,4 | z4 G,4 | G,2 F,2 C,2 E,2 | F,4 C,4 | G,4 z4 | %13
w: Als|lang die Nees im|Wein- stock bleibt,|so|lang der Stock im|Safft sie|bleibt,|
w: ver-|meyd das Bösz, und|thut was recht,|wer|ist der wi- der|fie- sen|fecht?|
 E,4 B,,4 | D,2 C,4 E,2 | D,2 C,2 A,,4 | z4 E,4 | A,2 F,4 C,2 | D,2 E,2 C,2 G,2 | C,8 |] %20
w: dürz wird|sie a- ber|und ver- brennt,|so|balt sie sich|vom Wein- * stock|trennt.|
w: da ist|kein Feind noch|Macht so grosz|wel-|che Gott nicht|zu bo- * den|stosz.|

